Newaita-dark/apps/22/discord.svg

<?xml version="1.0" encoding="UTF-8"?>
<svg xmlns="http://www.w3.org/2000/svg" xmlns:xlink="http://www.w3.org/1999/xlink" width="22pt" height="22pt" viewBox="0 0 22 22" version="1.1">
<defs>
<linearGradient id="linear0" gradientUnits="userSpaceOnUse" x1="254" y1="233.5" x2="254" y2="254.666672" gradientTransform="matrix(0.0429729,0,0,0.0429729,-0.00000262285,9.239165)">
<stop offset="0" style="stop-color:rgb(0%,0%,0%);stop-opacity:0.27451;"/>
<stop offset="1" style="stop-color:rgb(0%,0%,0%);stop-opacity:0;"/>
</linearGradient>
<radialGradient id="radial0" gradientUnits="userSpaceOnUse" cx="450.908936" cy="189.579361" fx="450.908936" fy="189.579361" r="21.166656" gradientTransform="matrix(0.000000119742,-0.0537161,-0.0966889,-0.0000000698078,35.385025,43.721791)">
<stop offset="0" style="stop-color:rgb(0%,0%,0%);stop-opacity:0.313725;"/>
<stop offset="0.222222" style="stop-color:rgb(0%,0%,0%);stop-opacity:0.27451;"/>
<stop offset="1" style="stop-color:rgb(0%,0%,0%);stop-opacity:0;"/>
</radialGradient>
<radialGradient id="radial1" gradientUnits="userSpaceOnUse" cx="450.908936" cy="189.579361" fx="450.908936" fy="189.579361" r="21.166656" gradientTransform="matrix(-0.000000119742,0.0537161,0.0966889,0.0000000698078,-1.275321,-5.175142)">
<stop offset="0" style="stop-color:rgb(0%,0%,0%);stop-opacity:0.313725;"/>
<stop offset="0.222222" style="stop-color:rgb(0%,0%,0%);stop-opacity:0.27451;"/>
<stop offset="1" style="stop-color:rgb(0%,0%,0%);stop-opacity:0;"/>
</radialGradient>
<radialGradient id="radial2" gradientUnits="userSpaceOnUse" cx="450.908936" cy="189.579361" fx="450.908936" fy="189.579361" r="21.166656" gradientTransform="matrix(-0.000000119742,-0.0537161,0.0966889,-0.0000000698078,-1.275321,43.721791)">
<stop offset="0" style="stop-color:rgb(0%,0%,0%);stop-opacity:0.313725;"/>
<stop offset="0.222222" style="stop-color:rgb(0%,0%,0%);stop-opacity:0.27451;"/>
<stop offset="1" style="stop-color:rgb(0%,0%,0%);stop-opacity:0;"/>
</radialGradient>
<radialGradient id="radial3" gradientUnits="userSpaceOnUse" cx="450.908936" cy="189.579361" fx="450.908936" fy="189.579361" r="21.166656" gradientTransform="matrix(0.000000119742,0.0537161,-0.0966889,0.0000000698078,35.385024,-5.175142)">
<stop offset="0" style="stop-color:rgb(0%,0%,0%);stop-opacity:0.313725;"/>
<stop offset="0.222222" style="stop-color:rgb(0%,0%,0%);stop-opacity:0.27451;"/>
<stop offset="1" style="stop-color:rgb(0%,0%,0%);stop-opacity:0;"/>
</radialGradient>
<linearGradient id="linear1" gradientUnits="userSpaceOnUse" x1="169.333328" y1="233.5" x2="169.333328" y2="-168.666656" gradientTransform="matrix(0.0429729,0,0,0.0429729,0,9.239163)">
<stop offset="0" style="stop-color:rgb(36.078431%,41.960784%,75.294118%);stop-opacity:1;"/>
<stop offset="1" style="stop-color:rgb(47.45098%,52.54902%,79.607843%);stop-opacity:1;"/>
</linearGradient>
<linearGradient id="linear2" gradientUnits="userSpaceOnUse" x1="960" y1="495.118103" x2="960" y2="1135.118164" gradientTransform="matrix(1,0,0,1,0,0)">
<stop offset="0" style="stop-color:rgb(87.843137%,87.843137%,87.843137%);stop-opacity:1;"/>
<stop offset="1" style="stop-color:rgb(93.333333%,93.333333%,93.333333%);stop-opacity:1;"/>
</linearGradient>
</defs>
<g id="surface1">
<path style=" stroke:none;fill-rule:nonzero;fill:url(#linear0);" d="M 16.828125 19.207031 L 17.28125 19.207031 L 17.28125 20.214844 L 16.828125 20.214844 Z M 16.828125 19.207031 "/>
<path style=" stroke:none;fill-rule:nonzero;fill:url(#radial0);" d="M 17.28125 19.273438 L 19.101562 19.273438 L 19.101562 18.363281 L 17.28125 18.363281 Z M 17.28125 19.273438 "/>
<path style=" stroke:none;fill-rule:nonzero;fill:url(#radial1);" d="M 16.828125 19.273438 L 15.007812 19.273438 L 15.007812 20.183594 L 16.828125 20.183594 Z M 16.828125 19.273438 "/>
<path style=" stroke:none;fill-rule:nonzero;fill:url(#radial2);" d="M 16.828125 19.273438 L 15.007812 19.273438 L 15.007812 18.363281 L 16.828125 18.363281 Z M 16.828125 19.273438 "/>
<path style=" stroke:none;fill-rule:nonzero;fill:url(#radial3);" d="M 17.28125 19.273438 L 19.101562 19.273438 L 19.101562 20.183594 L 17.28125 20.183594 Z M 17.28125 19.273438 "/>
<path style=" stroke:none;fill-rule:nonzero;fill:url(#linear1);" d="M 3.183594 1.992188 C 2.679688 1.992188 2.273438 2.398438 2.273438 2.902344 L 2.273438 15.636719 C 2.273438 16.140625 2.679688 16.542969 3.183594 16.542969 L 14.765625 16.542969 L 16.449219 19.070312 C 16.535156 19.195312 16.675781 19.273438 16.828125 19.273438 L 17.28125 19.273438 C 17.535156 19.273438 17.738281 19.070312 17.738281 18.820312 L 17.738281 16.542969 L 18.648438 16.542969 C 19.152344 16.542969 19.554688 16.140625 19.554688 15.636719 L 19.554688 2.902344 C 19.554688 2.398438 19.152344 1.992188 18.648438 1.992188 Z M 3.183594 1.992188 "/>
<path style=" stroke:none;fill-rule:nonzero;fill:rgb(90.196079%,90.196079%,90.196079%);fill-opacity:0.392157;" d="M 3.183594 2.046875 C 2.679688 2.046875 2.273438 2.453125 2.273438 2.957031 L 2.273438 3.070312 C 2.273438 2.566406 2.679688 2.160156 3.183594 2.160156 L 18.648438 2.160156 C 19.152344 2.160156 19.554688 2.566406 19.554688 3.070312 L 19.554688 2.957031 C 19.554688 2.453125 19.152344 2.046875 18.648438 2.046875 Z M 3.183594 2.046875 "/>
<path style="fill-rule:nonzero;fill:url(#linear2);stroke-width:11.338583;stroke-linecap:round;stroke-linejoin:round;stroke:rgb(12.941177%,12.941177%,12.941177%);stroke-opacity:1;stroke-miterlimit:4;" d="M 842.06709 503.659875 C 768.545116 507.095481 695.710264 535.611013 639.022761 580.961015 C 574.089803 709.796249 536.641695 853.40459 535.611013 997.700052 C 530.114043 1075.001193 672.348141 1105.578088 756.864055 1107.295892 C 800.152694 1105.234528 830.042468 1065.037935 801.183375 1046.485661 C 762.704586 1032.743236 707.391325 1020.718614 679.906475 994.951567 C 650.016701 975.025051 659.979959 955.098535 678.532233 963.000429 C 761.673904 1015.565205 860.275803 1043.737176 958.534141 1045.111419 C 958.877702 1045.111419 958.877702 1045.111419 959.221263 1045.111419 C 959.564823 1045.111419 959.908384 1045.111419 959.908384 1045.111419 C 1058.510283 1043.737176 1156.768621 1015.565205 1239.910292 963.000429 C 1258.462566 955.098535 1268.425824 975.025051 1238.53605 994.951567 C 1211.0512 1020.718614 1155.73794 1032.743236 1117.60271 1046.485661 C 1088.400057 1065.037935 1118.633392 1105.234528 1161.57847 1107.295892 C 1246.094384 1105.578088 1388.672043 1075.001193 1382.831512 997.700052 C 1381.80083 853.40459 1344.352722 709.796249 1279.419764 580.961015 C 1222.732261 535.611013 1149.897409 507.095481 1076.718996 503.659875 C 1072.939829 504.346996 1071.222026 509.843966 1068.12998 512.248891 C 1136.154984 532.175407 1203.492866 560.347378 1258.119006 606.384502 C 1198.683018 575.807606 1135.124302 552.789044 1068.817102 542.825786 C 1032.743236 536.641695 995.982249 533.89321 959.221263 533.89321 C 922.460276 533.89321 886.04285 536.641695 849.625423 542.825786 C 783.661784 552.789044 719.759508 575.807606 660.32352 606.384502 C 714.949659 560.347378 782.287541 532.175407 850.312545 512.248891 C 847.56406 509.843966 845.502696 504.346996 842.06709 503.659875 Z M 800.152694 755.146252 C 844.472014 755.146252 879.858758 790.876557 879.858758 835.195877 C 879.858758 879.515198 844.472014 915.245503 800.152694 915.245503 C 755.833373 915.245503 720.103068 879.515198 720.103068 835.195877 C 720.103068 790.876557 755.833373 755.146252 800.152694 755.146252 Z M 1120.007635 755.146252 C 1164.326955 755.146252 1200.05726 790.876557 1200.05726 835.195877 C 1200.05726 879.515198 1164.326955 915.245503 1120.007635 915.245503 C 1075.688314 915.245503 1039.958009 879.515198 1039.958009 835.195877 C 1039.958009 790.876557 1075.688314 755.146252 1120.007635 755.146252 Z M 1120.007635 755.146252 " transform="matrix(0.0113699,0,0,0.0113699,0,0)"/>
<path style=" stroke:none;fill-rule:nonzero;fill:rgb(0%,0%,0%);fill-opacity:0.235294;" d="M 2.273438 15.464844 L 2.273438 15.636719 C 2.273438 16.140625 2.679688 16.542969 3.183594 16.542969 L 14.765625 16.542969 L 16.449219 19.070312 C 16.535156 19.195312 16.675781 19.273438 16.828125 19.273438 L 17.28125 19.273438 C 17.535156 19.273438 17.738281 19.070312 17.738281 18.820312 L 17.738281 18.648438 C 17.738281 18.898438 17.535156 19.101562 17.28125 19.101562 L 16.828125 19.101562 C 16.675781 19.101562 16.535156 19.027344 16.449219 18.898438 L 14.765625 16.375 L 3.183594 16.375 C 2.679688 16.375 2.273438 15.96875 2.273438 15.464844 Z M 19.554688 15.464844 C 19.554688 15.96875 19.152344 16.375 18.648438 16.375 L 17.738281 16.375 L 17.738281 16.542969 L 18.648438 16.542969 C 19.152344 16.542969 19.554688 16.140625 19.554688 15.636719 Z M 19.554688 15.464844 "/>
<path style=" stroke:none;fill-rule:nonzero;fill:rgb(12.941177%,12.941177%,12.941177%);fill-opacity:1;" d="M 3.183594 1.925781 C 2.644531 1.925781 2.210938 2.363281 2.210938 2.902344 L 2.210938 15.636719 C 2.210938 16.171875 2.644531 16.609375 3.183594 16.609375 L 14.730469 16.609375 L 16.394531 19.105469 C 16.492188 19.25 16.652344 19.335938 16.828125 19.335938 L 17.28125 19.335938 C 17.566406 19.335938 17.800781 19.105469 17.800781 18.820312 L 17.800781 16.609375 L 18.648438 16.609375 C 19.183594 16.609375 19.621094 16.171875 19.621094 15.636719 L 19.621094 2.902344 C 19.621094 2.363281 19.183594 1.925781 18.648438 1.925781 Z M 3.183594 2.054688 L 18.648438 2.054688 C 19.117188 2.054688 19.492188 2.429688 19.492188 2.902344 L 19.492188 15.636719 C 19.492188 16.105469 19.117188 16.480469 18.648438 16.480469 L 17.671875 16.480469 L 17.671875 18.820312 C 17.671875 19.035156 17.5 19.207031 17.28125 19.207031 L 16.828125 19.207031 C 16.695312 19.207031 16.574219 19.144531 16.503906 19.035156 L 14.800781 16.480469 L 3.183594 16.480469 C 2.714844 16.480469 2.339844 16.105469 2.339844 15.636719 L 2.339844 2.902344 C 2.339844 2.429688 2.714844 2.054688 3.183594 2.054688 Z M 3.183594 2.054688 "/>
<path style=" stroke:none;fill-rule:nonzero;fill:rgb(0%,0%,0%);fill-opacity:0.235294;" d="M 14.769531 16.375 L 13.1875 13.816406 L 14.324219 16.375 Z M 14.769531 16.375 "/>
</g>
</svg>

<svg xmlns="http://www.w3.org/2000/svg" width="22pt" height="22pt" viewBox="0 0 22 22"><defs><linearGradient id="a" gradientUnits="userSpaceOnUse" x1="254" y1="233.5" x2="254" y2="254.667" gradientTransform="matrix(.04297 0 0 .04297 0 9.24)"><stop offset="0" stop-opacity=".275"/><stop offset="1" stop-opacity="0"/></linearGradient><radialGradient id="b" gradientUnits="userSpaceOnUse" cx="450.909" cy="189.579" fx="450.909" fy="189.579" r="21.167" gradientTransform="matrix(0 -.05372 -.09669 0 35.385 43.722)"><stop offset="0" stop-opacity=".314"/><stop offset=".222" stop-opacity=".275"/><stop offset="1" stop-opacity="0"/></radialGradient><radialGradient id="c" gradientUnits="userSpaceOnUse" cx="450.909" cy="189.579" fx="450.909" fy="189.579" r="21.167" gradientTransform="matrix(0 .05372 .09669 0 -1.275 -5.175)"><stop offset="0" stop-opacity=".314"/><stop offset=".222" stop-opacity=".275"/><stop offset="1" stop-opacity="0"/></radialGradient><radialGradient id="d" gradientUnits="userSpaceOnUse" cx="450.909" cy="189.579" fx="450.909" fy="189.579" r="21.167" gradientTransform="matrix(0 -.05372 .09669 0 -1.275 43.722)"><stop offset="0" stop-opacity=".314"/><stop offset=".222" stop-opacity=".275"/><stop offset="1" stop-opacity="0"/></radialGradient><radialGradient id="e" gradientUnits="userSpaceOnUse" cx="450.909" cy="189.579" fx="450.909" fy="189.579" r="21.167" gradientTransform="matrix(0 .05372 -.09669 0 35.385 -5.175)"><stop offset="0" stop-opacity=".314"/><stop offset=".222" stop-opacity=".275"/><stop offset="1" stop-opacity="0"/></radialGradient><linearGradient id="f" gradientUnits="userSpaceOnUse" x1="169.333" y1="233.5" x2="169.333" y2="-168.667" gradientTransform="matrix(.04297 0 0 .04297 0 9.24)"><stop offset="0" stop-color="#5c6bc0"/><stop offset="1" stop-color="#7986cb"/></linearGradient><linearGradient id="g" gradientUnits="userSpaceOnUse" x1="960" y1="495.118" x2="960" y2="1135.118"><stop offset="0" stop-color="#e0e0e0"/><stop offset="1" stop-color="#eee"/></linearGradient></defs><path d="M16.828 19.207h.453v1.008h-.453zm0 0" fill="url(#a)"/><path d="M17.281 19.273h1.82v-.91h-1.82zm0 0" fill="url(#b)"/><path d="M16.828 19.273h-1.82v.91h1.82zm0 0" fill="url(#c)"/><path d="M16.828 19.273h-1.82v-.91h1.82zm0 0" fill="url(#d)"/><path d="M17.281 19.273h1.82v.91h-1.82zm0 0" fill="url(#e)"/><path d="M3.184 1.992a.909.909 0 0 0-.91.91v12.735c0 .504.406.906.91.906h11.582l1.683 2.527a.462.462 0 0 0 .38.203h.452a.454.454 0 0 0 .457-.453v-2.277h.91a.902.902 0 0 0 .907-.906V2.902a.905.905 0 0 0-.907-.91zm0 0" fill="url(#f)"/><path d="M3.184 2.047a.909.909 0 0 0-.91.91v.113c0-.504.406-.91.91-.91h15.464c.504 0 .907.406.907.91v-.113a.905.905 0 0 0-.907-.91zm0 0" fill="#e6e6e6" fill-opacity=".392"/><path d="M842.067 503.66c-73.522 3.435-146.357 31.951-203.044 77.301-64.933 128.835-102.381 272.444-103.412 416.74-5.497 77.3 136.737 107.877 221.253 109.595 43.289-2.061 73.178-42.258 44.32-60.81-38.48-13.743-93.793-25.767-121.278-51.534-29.89-19.927-19.926-39.853-1.374-31.952 83.142 52.565 181.744 80.737 280.002 82.111h1.374c98.602-1.374 196.86-29.546 280.002-82.11 18.553-7.902 28.516 12.024-1.374 31.95-27.485 25.768-82.798 37.792-120.933 51.535-29.203 18.552 1.03 58.749 43.975 60.81 84.516-1.718 227.094-32.295 221.254-109.596-1.031-144.295-38.48-287.904-103.412-416.739-56.688-45.35-129.523-73.866-202.701-77.301-3.78.687-5.497 6.184-8.589 8.589 68.025 19.926 135.363 48.098 189.989 94.136-59.436-30.577-122.995-53.596-189.302-63.56-36.074-6.183-72.835-8.932-109.596-8.932-36.76 0-73.178 2.749-109.596 8.933-65.963 9.963-129.865 32.982-189.301 63.559 54.626-46.038 121.964-74.21 189.989-94.136-2.749-2.405-4.81-7.902-8.246-8.59zm-41.914 251.486c44.319 0 79.706 35.73 79.706 80.05s-35.387 80.05-79.706 80.05c-44.32 0-80.05-35.73-80.05-80.05s35.73-80.05 80.05-80.05zm319.855 0c44.319 0 80.05 35.73 80.05 80.05s-35.731 80.05-80.05 80.05c-44.32 0-80.05-35.73-80.05-80.05s35.73-80.05 80.05-80.05zm0 0" transform="rotate(.24) scale(.01137)" fill="url(#g)" stroke-width="11.339" stroke-linecap="round" stroke-linejoin="round" stroke="#212121"/><path d="M2.273 15.465v.172c0 .504.407.906.91.906h11.583l1.683 2.527a.462.462 0 0 0 .38.203h.452a.454.454 0 0 0 .457-.453v-.172c0 .25-.203.454-.457.454h-.453a.452.452 0 0 1-.379-.204l-1.683-2.523H3.184a.909.909 0 0 1-.91-.91zm17.282 0c0 .504-.403.91-.907.91h-.91v.168h.91a.902.902 0 0 0 .907-.906zm0 0" fill-opacity=".235"/><path d="M3.184 1.926a.974.974 0 0 0-.973.976v12.735c0 .535.434.972.973.972H14.73l1.665 2.496a.52.52 0 0 0 .433.23h.453c.285 0 .52-.23.52-.515v-2.21h.847a.975.975 0 0 0 .973-.973V2.902a.976.976 0 0 0-.973-.976zm0 .129h15.464c.47 0 .844.375.844.847v12.735a.84.84 0 0 1-.844.843h-.976v2.34a.386.386 0 0 1-.39.387h-.454a.38.38 0 0 1-.324-.172L14.8 16.48H3.184a.84.84 0 0 1-.844-.843V2.902c0-.472.375-.847.844-.847zm0 0" fill="#212121"/><path d="M14.77 16.375l-1.582-2.559 1.136 2.559zm0 0" fill-opacity=".235"/></svg>
